X: 15
T:Keel Row
C:via PR
R:strathspey
S:Nottingham Music Database
M:4/4
L:1/8
K:G
d-c|"G"B2GB "Am"c2Ac|"G"B2GB "D7"AFDc|"G"B2GB "Am"c2Ac|[1 "G"BG "D7"(3AGF "G"Gedc:|[2 "G"BG "D7" AF "G"G2dc||
Bddg "C"e2dc|"G"B2GB "D7"AFDc|"G"Bddg "C"e2dc|"G"BG"D7"AF "G"Gedc|
Bddg "C"e2dc|"G"Bddg "C"e2dc|"G"Bddg "C"fedc|"G"BG"D7"AF "G"G2||
